icons/markup-fill.svg

<svg xmlns="http://www.w3.org/2000/svg" width="24" height="24" fill="none"><g clip-path="url(#a)"><g><path fill="#121212" d="M12 22C6.477 22 2 17.523 2 12C2 6.477 6.477 2 12 2C17.523 2 22 6.477 22 12C22 17.523 17.523 22 12 22ZM17.051 18.204L16.189 14.757C16.1348 14.5408 16.01 14.3488 15.8342 14.2117C15.6585 14.0745 15.4419 14 15.219 14H8.781C8.55807 14 8.34154 14.0745 8.16579 14.2117C7.99005 14.3488 7.86517 14.5408 7.811 14.757L6.949 18.204C8.37466 19.3681 10.1594 20.0028 12 20C13.8406 20.0028 15.6253 19.3681 17.051 18.204ZM10 12H14V10.5L12.962 6.865C12.9026 6.65566 12.7765 6.47142 12.6029 6.34022C12.4293 6.20903 12.2176 6.13805 12 6.13805C11.7824 6.13805 11.5707 6.20903 11.3971 6.34022C11.2235 6.47142 11.0974 6.65566 11.038 6.865L10 10.5V12Z"/></g></g><defs><clipPath id="a"><rect width="24" height="24" fill="white"/></clipPath></defs></svg>

<svg width="24" height="24" fill="none" xmlns="http://www.w3.org/2000/svg"><g clip-path="url(#a)"><path d="M12 22C6.477 22 2 17.523 2 12S6.477 2 12 2s10 4.477 10 10-4.477 10-10 10Zm5.051-3.796-.862-3.447a1 1 0 0 0-.97-.757H8.781a1 1 0 0 0-.97.757l-.862 3.447A7.967 7.967 0 0 0 12 20a7.967 7.967 0 0 0 5.051-1.796ZM10 12h4v-1.5l-1.038-3.635a1 1 0 0 0-1.924 0L10 10.5V12Z" /></g><defs><clipPath id="a"><path fill="#fff" d="M0 0h24v24H0z"/></clipPath></defs></svg>
